report_00007_2020-12-11T15:55:29.892Z/uses-long-cache-ttl/samples/pages+cached/raw/sorted.svg

<svg width="640" height="490" xmlns="http://www.w3.org/2000/svg" xmlns:xlink="http://www.w3.org/1999/xlink"><path fill="#fff" d="M0 0h640v490H0z"/><defs><path id="d" stroke-width=".222" stroke="currentColor" d="M-1-1h2v2h-2z"/><path id="b" stroke-width=".222" stroke="currentColor" d="M0-1.33l-1.33 2h2.66z"/><path id="f" stroke-width=".222" stroke="currentColor" d="M0 1.33L1.265.411.782-1.067l-1.564-.009-.483 1.487z"/><use xlink:href="#b" id="c" stroke="currentColor" transform="rotate(180)"/><use xlink:href="#d" id="e" stroke="currentColor" transform="rotate(45)"/><circle id="a" stroke-width=".222" stroke="currentColor" cx="0" cy="0" r="1"/></defs><g fill="none" color="#000" stroke="currentColor"><path stroke="#000" d="M78.8 396.3h9m527.2 0h-9"/><text transform="translate(70.5 400.2)" stroke="none" fill="#000" font-family="Arial" font-size="12" text-anchor="end"><tspan>559100</tspan></text></g><g fill="none" color="#000" stroke="currentColor"><path stroke="#000" d="M78.8 321h9m527.2 0h-9"/><text transform="translate(70.5 324.9)" stroke="none" fill="#000" font-family="Arial" font-size="12" text-anchor="end"><tspan>559150</tspan></text></g><g fill="none" color="#000" stroke="currentColor"><path stroke="#000" d="M78.8 245.7h9m527.2 0h-9"/><text transform="translate(70.5 249.6)" stroke="none" fill="#000" font-family="Arial" font-size="12" text-anchor="end"><tspan>559200</tspan></text></g><g fill="none" color="#000" stroke="currentColor"><path stroke="#000" d="M78.8 170.4h9m527.2 0h-9"/><text transform="translate(70.5 174.3)" stroke="none" fill="#000" font-family="Arial" font-size="12" text-anchor="end"><tspan>559250</tspan></text></g><g fill="none" color="#000" stroke="currentColor"><path stroke="#000" d="M78.8 95.1h9m527.2 0h-9"/><text transform="translate(70.5 99)" stroke="none" fill="#000" font-family="Arial" font-size="12" text-anchor="end"><tspan>559300</tspan></text></g><g fill="none" color="#000" stroke="currentColor"><path stroke="#000" d="M78.8 19.8h9m527.2 0h-9"/><text transform="translate(70.5 23.7)" stroke="none" fill="#000" font-family="Arial" font-size="12" text-anchor="end"><tspan>559350</tspan></text></g><g fill="none" color="#000" stroke="currentColor"><path stroke="#000" d="M78.8 418v-9m0-390.9v9"/><text transform="translate(78.8 439.9)" stroke="none" fill="#000" font-family="Arial" font-size="12" text-anchor="middle"><tspan>0</tspan></text></g><g fill="none" color="#000" stroke="currentColor"><path stroke="#000" d="M133 418v-9m0-390.9v9"/><text transform="translate(133 439.9)" stroke="none" fill="#000" font-family="Arial" font-size="12" text-anchor="middle"><tspan>10</tspan></text></g><g fill="none" color="#000" stroke="currentColor"><path stroke="#000" d="M187.1 418v-9m0-390.9v9"/><text transform="translate(187.1 439.9)" stroke="none" fill="#000" font-family="Arial" font-size="12" text-anchor="middle"><tspan>20</tspan></text></g><g fill="none" color="#000" stroke="currentColor"><path stroke="#000" d="M241.3 418v-9m0-390.9v9"/><text transform="translate(241.3 439.9)" stroke="none" fill="#000" font-family="Arial" font-size="12" text-anchor="middle"><tspan>30</tspan></text></g><g fill="none" color="#000" stroke="currentColor"><path stroke="#000" d="M295.4 418v-9m0-390.9v9"/><text transform="translate(295.4 439.9)" stroke="none" fill="#000" font-family="Arial" font-size="12" text-anchor="middle"><tspan>40</tspan></text></g><g fill="none" color="#000" stroke="currentColor"><path stroke="#000" d="M349.6 418v-9m0-390.9v9"/><text transform="translate(349.6 439.9)" stroke="none" fill="#000" font-family="Arial" font-size="12" text-anchor="middle"><tspan>50</tspan></text></g><g fill="none" color="#000" stroke="currentColor"><path stroke="#000" d="M403.8 418v-9m0-390.9v9"/><text transform="translate(403.8 439.9)" stroke="none" fill="#000" font-family="Arial" font-size="12" text-anchor="middle"><tspan>60</tspan></text></g><g fill="none" color="#000" stroke="currentColor"><path stroke="#000" d="M457.9 418v-9m0-390.9v9"/><text transform="translate(457.9 439.9)" stroke="none" fill="#000" font-family="Arial" font-size="12" text-anchor="middle"><tspan>70</tspan></text></g><g fill="none" color="#000" stroke="currentColor"><path stroke="#000" d="M512.1 418v-9m0-390.9v9"/><text transform="translate(512.1 439.9)" stroke="none" fill="#000" font-family="Arial" font-size="12" text-anchor="middle"><tspan>80</tspan></text></g><g fill="none" color="#000" stroke="currentColor"><path stroke="#000" d="M566.3 418v-9m0-390.9v9"/><text transform="translate(566.3 439.9)" stroke="none" fill="#000" font-family="Arial" font-size="12" text-anchor="middle"><tspan>90</tspan></text></g><path stroke="#000" d="M78.8 18.1V418H615V18.1H78.8z" fill="none" color="#000"/><text transform="translate(288.1 457.9)" stroke="none" fill="#000" font-family="Arial" font-size="12" text-anchor="end" color="#000"><tspan>raw</tspan></text><path stroke="#9400D3" d="M296.4 454h42.2M78.8 410.3l5.4-315.5 5.4-.8 5.4-.7 5.5-.7 5.4-2.9h5.4l5.4-.9 5.4-.1 5.4-.6 5.5-.6 5.4-.4 5.4-.2 5.4-1.6h5.4l5.4-1.4 5.5-1.6 5.4-.8 5.4-.1 5.4-.3 5.4-.4 5.4-.2h5.5l5.4-.1 5.4-.4 5.4-.9 5.4-.1 5.4-.9 5.5-.4 5.4-.1 5.4-.1 5.4-.5h5.4l5.4-.1 5.4-.2 5.5-.8 5.4-.4 5.4-.3 5.4-.2 5.4-.2 5.4-.1 5.5-.4 5.4-.6h5.4l5.4-.2 5.4-1.3 5.4-1.4 5.5-.3 5.4-.1 5.4-.8 5.4-1.4 5.4-.7 5.4-.4 5.5-.6 5.4-.2 5.4-.4 5.4-.4 5.4-1 5.4-.1 5.5-.2 5.4-.3 5.4-.7 5.4-.5 5.4-.5 5.4-.1 5.5-.2 5.4-.9 5.4-.7 5.4-.3 5.4-.2 5.4-.6 5.4-.9 5.5-.3 5.4-.1h5.4l5.4-.5 5.4-.9 5.4-.7 5.5-.6 5.4-.1 5.4-1.9h5.4l5.4-.1 5.4-.3h5.5l5.4-.2 5.4-.3h5.4l5.4-.8 5.4-.3 5.5-.1 5.4-1.5 5.4-1.4 5.4-.2 5.4-.5 5.4-.3 5.5-.9 5.4-1.4 5.4-10.6 5.4-8.5" fill="none" color="#000"/><text transform="translate(288.1 475.9)" stroke="none" fill="#000" font-family="Arial" font-size="12" text-anchor="end" color="#000"><tspan>score p10=28672</tspan></text><path stroke="#009E73" d="M296.4 472h42.2" fill="none" color="#000"/><text transform="translate(504.6 457.9)" stroke="none" fill="#000" font-family="Arial" font-size="12" text-anchor="end" color="#000"><tspan>score median=131072</tspan></text><path stroke="#56B4E9" d="M512.9 454h42.2" fill="none" color="#000"/><g fill="none" color="#000" stroke="currentColor"><path stroke="#000" d="M78.8 18.1V418H615V18.1H78.8z"/></g></svg>

<?xml version="1.0" encoding="utf-8"  standalone="no"?>
<svg 
 width="640" height="490"
 viewBox="0 0 640 490"
 xmlns="http://www.w3.org/2000/svg"
 xmlns:xlink="http://www.w3.org/1999/xlink"
>

<title>Gnuplot</title>
<desc>Produced by GNUPLOT 5.4 patchlevel 0 </desc>

<g id="gnuplot_canvas">

<rect x="0" y="0" width="640" height="490" fill="#ffffff"/>
<defs>

	<circle id='gpDot' r='0.5' stroke-width='0.5' stroke='currentColor'/>
	<path id='gpPt0' stroke-width='0.222' stroke='currentColor' d='M-1,0 h2 M0,-1 v2'/>
	<path id='gpPt1' stroke-width='0.222' stroke='currentColor' d='M-1,-1 L1,1 M1,-1 L-1,1'/>
	<path id='gpPt2' stroke-width='0.222' stroke='currentColor' d='M-1,0 L1,0 M0,-1 L0,1 M-1,-1 L1,1 M-1,1 L1,-1'/>
	<rect id='gpPt3' stroke-width='0.222' stroke='currentColor' x='-1' y='-1' width='2' height='2'/>
	<rect id='gpPt4' stroke-width='0.222' stroke='currentColor' fill='currentColor' x='-1' y='-1' width='2' height='2'/>
	<circle id='gpPt5' stroke-width='0.222' stroke='currentColor' cx='0' cy='0' r='1'/>
	<use xlink:href='#gpPt5' id='gpPt6' fill='currentColor' stroke='none'/>
	<path id='gpPt7' stroke-width='0.222' stroke='currentColor' d='M0,-1.33 L-1.33,0.67 L1.33,0.67 z'/>
	<use xlink:href='#gpPt7' id='gpPt8' fill='currentColor' stroke='none'/>
	<use xlink:href='#gpPt7' id='gpPt9' stroke='currentColor' transform='rotate(180)'/>
	<use xlink:href='#gpPt9' id='gpPt10' fill='currentColor' stroke='none'/>
	<use xlink:href='#gpPt3' id='gpPt11' stroke='currentColor' transform='rotate(45)'/>
	<use xlink:href='#gpPt11' id='gpPt12' fill='currentColor' stroke='none'/>
	<path id='gpPt13' stroke-width='0.222' stroke='currentColor' d='M0,1.330 L1.265,0.411 L0.782,-1.067 L-0.782,-1.076 L-1.265,0.411 z'/>
	<use xlink:href='#gpPt13' id='gpPt14' fill='currentColor' stroke='none'/>
	<filter id='textbox' filterUnits='objectBoundingBox' x='0' y='0' height='1' width='1'>
	  <feFlood flood-color='#FFFFFF' flood-opacity='1' result='bgnd'/>
	  <feComposite in='SourceGraphic' in2='bgnd' operator='atop'/>
	</filter>
	<filter id='greybox' filterUnits='objectBoundingBox' x='0' y='0' height='1' width='1'>
	  <feFlood flood-color='lightgrey' flood-opacity='1' result='grey'/>
	  <feComposite in='SourceGraphic' in2='grey' operator='atop'/>
	</filter>
</defs>
<g fill="none" color="#FFFFFF" stroke="black" stroke-width="1.00" stroke-linecap="butt" stroke-linejoin="miter">
</g>
<g fill="none" color="black" stroke="currentColor" stroke-width="1.00" stroke-linecap="butt" stroke-linejoin="miter">
	<path stroke='black'  d='M78.8,396.3 L87.8,396.3 M615.0,396.3 L606.0,396.3  '/>	<g transform="translate(70.5,400.2)" stroke="none" fill="black" font-family="Arial" font-size="12.00"  text-anchor="end">
		<text><tspan font-family="Arial" > 559100</tspan></text>
	</g>
</g>
<g fill="none" color="black" stroke="currentColor" stroke-width="1.00" stroke-linecap="butt" stroke-linejoin="miter">
	<path stroke='black'  d='M78.8,321.0 L87.8,321.0 M615.0,321.0 L606.0,321.0  '/>	<g transform="translate(70.5,324.9)" stroke="none" fill="black" font-family="Arial" font-size="12.00"  text-anchor="end">
		<text><tspan font-family="Arial" > 559150</tspan></text>
	</g>
</g>
<g fill="none" color="black" stroke="currentColor" stroke-width="1.00" stroke-linecap="butt" stroke-linejoin="miter">
	<path stroke='black'  d='M78.8,245.7 L87.8,245.7 M615.0,245.7 L606.0,245.7  '/>	<g transform="translate(70.5,249.6)" stroke="none" fill="black" font-family="Arial" font-size="12.00"  text-anchor="end">
		<text><tspan font-family="Arial" > 559200</tspan></text>
	</g>
</g>
<g fill="none" color="black" stroke="currentColor" stroke-width="1.00" stroke-linecap="butt" stroke-linejoin="miter">
	<path stroke='black'  d='M78.8,170.4 L87.8,170.4 M615.0,170.4 L606.0,170.4  '/>	<g transform="translate(70.5,174.3)" stroke="none" fill="black" font-family="Arial" font-size="12.00"  text-anchor="end">
		<text><tspan font-family="Arial" > 559250</tspan></text>
	</g>
</g>
<g fill="none" color="black" stroke="currentColor" stroke-width="1.00" stroke-linecap="butt" stroke-linejoin="miter">
	<path stroke='black'  d='M78.8,95.1 L87.8,95.1 M615.0,95.1 L606.0,95.1  '/>	<g transform="translate(70.5,99.0)" stroke="none" fill="black" font-family="Arial" font-size="12.00"  text-anchor="end">
		<text><tspan font-family="Arial" > 559300</tspan></text>
	</g>
</g>
<g fill="none" color="black" stroke="currentColor" stroke-width="1.00" stroke-linecap="butt" stroke-linejoin="miter">
	<path stroke='black'  d='M78.8,19.8 L87.8,19.8 M615.0,19.8 L606.0,19.8  '/>	<g transform="translate(70.5,23.7)" stroke="none" fill="black" font-family="Arial" font-size="12.00"  text-anchor="end">
		<text><tspan font-family="Arial" > 559350</tspan></text>
	</g>
</g>
<g fill="none" color="black" stroke="currentColor" stroke-width="1.00" stroke-linecap="butt" stroke-linejoin="miter">
	<path stroke='black'  d='M78.8,418.0 L78.8,409.0 M78.8,18.1 L78.8,27.1  '/>	<g transform="translate(78.8,439.9)" stroke="none" fill="black" font-family="Arial" font-size="12.00"  text-anchor="middle">
		<text><tspan font-family="Arial" > 0</tspan></text>
	</g>
</g>
<g fill="none" color="black" stroke="currentColor" stroke-width="1.00" stroke-linecap="butt" stroke-linejoin="miter">
	<path stroke='black'  d='M133.0,418.0 L133.0,409.0 M133.0,18.1 L133.0,27.1  '/>	<g transform="translate(133.0,439.9)" stroke="none" fill="black" font-family="Arial" font-size="12.00"  text-anchor="middle">
		<text><tspan font-family="Arial" > 10</tspan></text>
	</g>
</g>
<g fill="none" color="black" stroke="currentColor" stroke-width="1.00" stroke-linecap="butt" stroke-linejoin="miter">
	<path stroke='black'  d='M187.1,418.0 L187.1,409.0 M187.1,18.1 L187.1,27.1  '/>	<g transform="translate(187.1,439.9)" stroke="none" fill="black" font-family="Arial" font-size="12.00"  text-anchor="middle">
		<text><tspan font-family="Arial" > 20</tspan></text>
	</g>
</g>
<g fill="none" color="black" stroke="currentColor" stroke-width="1.00" stroke-linecap="butt" stroke-linejoin="miter">
	<path stroke='black'  d='M241.3,418.0 L241.3,409.0 M241.3,18.1 L241.3,27.1  '/>	<g transform="translate(241.3,439.9)" stroke="none" fill="black" font-family="Arial" font-size="12.00"  text-anchor="middle">
		<text><tspan font-family="Arial" > 30</tspan></text>
	</g>
</g>
<g fill="none" color="black" stroke="currentColor" stroke-width="1.00" stroke-linecap="butt" stroke-linejoin="miter">
	<path stroke='black'  d='M295.4,418.0 L295.4,409.0 M295.4,18.1 L295.4,27.1  '/>	<g transform="translate(295.4,439.9)" stroke="none" fill="black" font-family="Arial" font-size="12.00"  text-anchor="middle">
		<text><tspan font-family="Arial" > 40</tspan></text>
	</g>
</g>
<g fill="none" color="black" stroke="currentColor" stroke-width="1.00" stroke-linecap="butt" stroke-linejoin="miter">
	<path stroke='black'  d='M349.6,418.0 L349.6,409.0 M349.6,18.1 L349.6,27.1  '/>	<g transform="translate(349.6,439.9)" stroke="none" fill="black" font-family="Arial" font-size="12.00"  text-anchor="middle">
		<text><tspan font-family="Arial" > 50</tspan></text>
	</g>
</g>
<g fill="none" color="black" stroke="currentColor" stroke-width="1.00" stroke-linecap="butt" stroke-linejoin="miter">
	<path stroke='black'  d='M403.8,418.0 L403.8,409.0 M403.8,18.1 L403.8,27.1  '/>	<g transform="translate(403.8,439.9)" stroke="none" fill="black" font-family="Arial" font-size="12.00"  text-anchor="middle">
		<text><tspan font-family="Arial" > 60</tspan></text>
	</g>
</g>
<g fill="none" color="black" stroke="currentColor" stroke-width="1.00" stroke-linecap="butt" stroke-linejoin="miter">
	<path stroke='black'  d='M457.9,418.0 L457.9,409.0 M457.9,18.1 L457.9,27.1  '/>	<g transform="translate(457.9,439.9)" stroke="none" fill="black" font-family="Arial" font-size="12.00"  text-anchor="middle">
		<text><tspan font-family="Arial" > 70</tspan></text>
	</g>
</g>
<g fill="none" color="black" stroke="currentColor" stroke-width="1.00" stroke-linecap="butt" stroke-linejoin="miter">
	<path stroke='black'  d='M512.1,418.0 L512.1,409.0 M512.1,18.1 L512.1,27.1  '/>	<g transform="translate(512.1,439.9)" stroke="none" fill="black" font-family="Arial" font-size="12.00"  text-anchor="middle">
		<text><tspan font-family="Arial" > 80</tspan></text>
	</g>
</g>
<g fill="none" color="black" stroke="currentColor" stroke-width="1.00" stroke-linecap="butt" stroke-linejoin="miter">
	<path stroke='black'  d='M566.3,418.0 L566.3,409.0 M566.3,18.1 L566.3,27.1  '/>	<g transform="translate(566.3,439.9)" stroke="none" fill="black" font-family="Arial" font-size="12.00"  text-anchor="middle">
		<text><tspan font-family="Arial" > 90</tspan></text>
	</g>
</g>
<g fill="none" color="black" stroke="currentColor" stroke-width="1.00" stroke-linecap="butt" stroke-linejoin="miter">
</g>
<g fill="none" color="black" stroke="currentColor" stroke-width="1.00" stroke-linecap="butt" stroke-linejoin="miter">
	<path stroke='black'  d='M78.8,18.1 L78.8,418.0 L615.0,418.0 L615.0,18.1 L78.8,18.1 Z  '/></g>
<g fill="none" color="black" stroke="currentColor" stroke-width="1.00" stroke-linecap="butt" stroke-linejoin="miter">
</g>
	<g id="gnuplot_plot_1" ><title>raw</title>
<g fill="none" color="black" stroke="currentColor" stroke-width="1.00" stroke-linecap="butt" stroke-linejoin="miter">
	<g transform="translate(288.1,457.9)" stroke="none" fill="black" font-family="Arial" font-size="12.00"  text-anchor="end">
		<text><tspan font-family="Arial" >raw</tspan></text>
	</g>
</g>
<g fill="none" color="black" stroke="currentColor" stroke-width="1.00" stroke-linecap="butt" stroke-linejoin="miter">
	<path stroke='rgb(148,   0, 211)'  d='M296.4,454.0 L338.6,454.0 M78.8,410.3 L84.2,94.8 L89.6,94.0 L95.0,93.3 L100.5,92.6 L105.9,89.7
		L111.3,89.7 L116.7,88.8 L122.1,88.7 L127.5,88.1 L133.0,87.5 L138.4,87.1 L143.8,86.9 L149.2,85.3
		L154.6,85.3 L160.0,83.9 L165.5,82.3 L170.9,81.5 L176.3,81.4 L181.7,81.1 L187.1,80.7 L192.5,80.5
		L198.0,80.5 L203.4,80.4 L208.8,80.0 L214.2,79.1 L219.6,79.0 L225.0,78.1 L230.5,77.7 L235.9,77.6
		L241.3,77.5 L246.7,77.0 L252.1,77.0 L257.5,76.9 L262.9,76.7 L268.4,75.9 L273.8,75.5 L279.2,75.2
		L284.6,75.0 L290.0,74.8 L295.4,74.7 L300.9,74.3 L306.3,73.7 L311.7,73.7 L317.1,73.5 L322.5,72.2
		L327.9,70.8 L333.4,70.5 L338.8,70.4 L344.2,69.6 L349.6,68.2 L355.0,67.5 L360.4,67.1 L365.9,66.5
		L371.3,66.3 L376.7,65.9 L382.1,65.5 L387.5,64.5 L392.9,64.4 L398.4,64.2 L403.8,63.9 L409.2,63.2
		L414.6,62.7 L420.0,62.2 L425.4,62.1 L430.9,61.9 L436.3,61.0 L441.7,60.3 L447.1,60.0 L452.5,59.8
		L457.9,59.2 L463.3,58.3 L468.8,58.0 L474.2,57.9 L479.6,57.9 L485.0,57.4 L490.4,56.5 L495.8,55.8
		L501.3,55.2 L506.7,55.1 L512.1,53.2 L517.5,53.2 L522.9,53.1 L528.3,52.8 L533.8,52.8 L539.2,52.6
		L544.6,52.3 L550.0,52.3 L555.4,51.5 L560.8,51.2 L566.3,51.1 L571.7,49.6 L577.1,48.2 L582.5,48.0
		L587.9,47.5 L593.3,47.2 L598.8,46.3 L604.2,44.9 L609.6,34.3 L615.0,25.8  '/></g>
	</g>
	<g id="gnuplot_plot_2" ><title>score p10=28672</title>
<g fill="none" color="black" stroke="currentColor" stroke-width="1.00" stroke-linecap="butt" stroke-linejoin="miter">
	<g transform="translate(288.1,475.9)" stroke="none" fill="black" font-family="Arial" font-size="12.00"  text-anchor="end">
		<text><tspan font-family="Arial" >score p10=28672</tspan></text>
	</g>
</g>
<g fill="none" color="black" stroke="currentColor" stroke-width="1.00" stroke-linecap="butt" stroke-linejoin="miter">
	<path stroke='rgb(  0, 158, 115)'  d='M296.4,472.0 L338.6,472.0  '/></g>
	</g>
	<g id="gnuplot_plot_3" ><title>score median=131072</title>
<g fill="none" color="black" stroke="currentColor" stroke-width="1.00" stroke-linecap="butt" stroke-linejoin="miter">
	<g transform="translate(504.6,457.9)" stroke="none" fill="black" font-family="Arial" font-size="12.00"  text-anchor="end">
		<text><tspan font-family="Arial" >score median=131072</tspan></text>
	</g>
</g>
<g fill="none" color="black" stroke="currentColor" stroke-width="1.00" stroke-linecap="butt" stroke-linejoin="miter">
	<path stroke='rgb( 86, 180, 233)'  d='M512.9,454.0 L555.1,454.0  '/></g>
	</g>
<g fill="none" color="#FFFFFF" stroke="rgb( 86, 180, 233)" stroke-width="2.00" stroke-linecap="butt" stroke-linejoin="miter">
</g>
<g fill="none" color="black" stroke="currentColor" stroke-width="2.00" stroke-linecap="butt" stroke-linejoin="miter">
</g>
<g fill="none" color="black" stroke="black" stroke-width="1.00" stroke-linecap="butt" stroke-linejoin="miter">
</g>
<g fill="none" color="black" stroke="currentColor" stroke-width="1.00" stroke-linecap="butt" stroke-linejoin="miter">
	<path stroke='black'  d='M78.8,18.1 L78.8,418.0 L615.0,418.0 L615.0,18.1 L78.8,18.1 Z  '/></g>
<g fill="none" color="black" stroke="currentColor" stroke-width="1.00" stroke-linecap="butt" stroke-linejoin="miter">
</g>
</g>
</svg>
